flaticon/arrows/upward.svg

<svg xmlns="http://www.w3.org/2000/svg" width="32" height="32" viewBox="0 0 24 24">
    <path d="M 20.324219 24 C 17.800781 24 13.105469 23.328125 9.429688 18.910156 C 9.339844 18.820312 6.8125 16.128906 6.855469 10.296875 L 0.707031 10.296875 L 11.015625 0 L 21.296875 10.296875 L 15.0625 10.296875 C 14.8125 11.875 14.351562 18.320312 22.261719 23.027344 L 23.292969 23.640625 L 22.117188 23.871094 C 22.09375 23.875 21.410156 24 20.324219 24 Z M 2.917969 9.382812 L 7.789062 9.382812 L 7.777344 9.851562 C 7.605469 15.597656 10.085938 18.273438 10.109375 18.300781 C 13.746094 22.667969 18.429688 23.144531 20.652344 23.082031 C 12.46875 17.476562 14.222656 9.808594 14.242188 9.730469 L 14.328125 9.382812 L 19.089844 9.382812 L 11.011719 1.292969 Z M 2.917969 9.382812"/>
</svg>

<svg xmlns="http://www.w3.org/2000/svg" width="32" height="32" viewBox="0 0 24 24">
    <path d="M20.324 24c-2.523 0-7.219-.672-10.894-5.09-.09-.09-2.617-2.781-2.575-8.613H.707L11.016 0l10.28 10.297h-6.233c-.25 1.578-.711 8.023 7.199 12.73l1.031.614-1.176.23c-.023.004-.707.129-1.793.129zM2.918 9.383h4.871l-.012.469c-.172 5.746 2.309 8.421 2.332 8.449 3.637 4.367 8.32 4.844 10.543 4.781-8.183-5.605-6.43-13.273-6.41-13.352l.086-.347h4.762l-8.078-8.09zm0 0"/>
</svg>
